assets/icons/qvision/format_align_right.svg

<svg xmlns="http://www.w3.org/2000/svg" height="24" viewBox="0 0 24 24" width="24"><path d="M0 0h24v24H0z" fill="none"/><path d="M3 21h18v-2H3v2zm6-4h12v-2H9v2zm-6-4h18v-2H3v2zm6-4h12V7H9v2zM3 3v2h18V3H3z"/></svg>

<svg width="24" height="24" viewBox="0 0 24 24" fill="none" xmlns="http://www.w3.org/2000/svg">
<g clip-path="url(#clip0_147_2583)">
<path d="M3 21H21V19H3V21ZM9 17H21V15H9V17ZM3 13H21V11H3V13ZM9 9H21V7H9V9ZM3 3V5H21V3H3Z" fill="#323232"/>
</g>
<defs>
<clipPath id="clip0_147_2583">
<rect width="24" height="24" fill="white"/>
</clipPath>
</defs>
</svg>
